NeoWeb/wwwroot/images/ecoboost/TProject4.svg

<svg viewBox="0 0 86 86" xmlns="http://www.w3.org/2000/svg"><path d="m42.11 17.93-20.35 11.75a2 2 0 0 0 -1 1.73v23.49a2 2 0 0 0 1 1.73l20.35 11.75a2 2 0 0 0 2 0l20.34-11.75a2 2 0 0 0 1-1.73v-23.49a2 2 0 0 0 -1-1.73l-20.34-11.75a2 2 0 0 0 -2 0z" fill="#2b393f"/><path d="m54.7 73.78 19.73-11.42a2 2 0 0 0 1-1.74v-22.82a1 1 0 0 0 -1.5-.87l-19.74 11.43a2 2 0 0 0 -1 1.73v22.83a1 1 0 0 0 1.51.86z" fill="#02e49b"/></svg>

<svg id="Layer_1" data-name="Layer 1" xmlns="http://www.w3.org/2000/svg" viewBox="0 0 86 86"><defs><style>.cls-1{fill:#2b393f;}.cls-2{fill:#02e49b;}</style></defs><title>Artboard 78</title><path class="cls-1" d="M42.11,17.93,21.76,29.68a2,2,0,0,0-1,1.73V54.9a2,2,0,0,0,1,1.73L42.11,68.38a2,2,0,0,0,2,0L64.45,56.63a2,2,0,0,0,1-1.73V31.41a2,2,0,0,0-1-1.73L44.11,17.93A2,2,0,0,0,42.11,17.93Z"/><path class="cls-2" d="M54.7,73.78,74.43,62.36a2,2,0,0,0,1-1.74V37.8a1,1,0,0,0-1.5-.87L54.19,48.36a2,2,0,0,0-1,1.73V72.92A1,1,0,0,0,54.7,73.78Z"/></svg>
